Newaita-dark/actions/22/resource-calendar-child-insert.svg

<?xml version="1.0" encoding="UTF-8"?>
<svg xmlns="http://www.w3.org/2000/svg" xmlns:xlink="http://www.w3.org/1999/xlink" width="22pt" height="22pt" viewBox="0 0 22 22" version="1.1">
<defs>
<filter id="alpha" filterUnits="objectBoundingBox" x="0%" y="0%" width="100%" height="100%">
  <feColorMatrix type="matrix" in="SourceGraphic" values="0 0 0 0 1 0 0 0 0 1 0 0 0 0 1 0 0 0 1 0"/>
</filter>
<mask id="mask0">
  <g filter="url(#alpha)">
<rect x="0" y="0" width="22" height="22" style="fill:rgb(0%,0%,0%);fill-opacity:0.988235;stroke:none;"/>
  </g>
</mask>
<clipPath id="clip1">
  <rect x="0" y="0" width="22" height="22"/>
</clipPath>
<g id="surface5" clip-path="url(#clip1)">
<path style=" stroke:none;fill-rule:nonzero;fill:rgb(74.117649%,74.117649%,74.117649%);fill-opacity:1;" d="M 0.910156 5.628906 L 0.910156 13.359375 L 2.273438 13.359375 L 2.273438 5.628906 Z M 19.554688 5.628906 L 19.554688 13.816406 L 20.921875 13.816406 L 20.921875 5.628906 Z M 8.1875 19.726562 L 8.1875 21.09375 L 11.824219 21.09375 L 11.824219 19.726562 Z M 8.1875 19.726562 "/>
</g>
<mask id="mask1">
  <g filter="url(#alpha)">
<rect x="0" y="0" width="22" height="22" style="fill:rgb(0%,0%,0%);fill-opacity:0.988235;stroke:none;"/>
  </g>
</mask>
<clipPath id="clip2">
  <rect x="0" y="0" width="22" height="22"/>
</clipPath>
<g id="surface8" clip-path="url(#clip2)">
<path style=" stroke:none;fill-rule:nonzero;fill:rgb(61.176473%,80.000001%,39.607844%);fill-opacity:1;" d="M 2.730469 1.082031 C 1.722656 1.082031 0.910156 1.894531 0.910156 2.902344 L 0.910156 5.628906 L 20.921875 5.628906 L 20.921875 2.902344 C 20.921875 1.894531 20.109375 1.082031 19.101562 1.082031 Z M 4.09375 1.992188 C 4.847656 1.992188 5.457031 2.597656 5.457031 3.355469 C 5.457031 4.109375 4.847656 4.71875 4.09375 4.71875 C 3.335938 4.71875 2.730469 4.109375 2.730469 3.355469 C 2.730469 2.597656 3.335938 1.992188 4.09375 1.992188 Z M 17.738281 1.992188 C 18.492188 1.992188 19.101562 2.597656 19.101562 3.355469 C 19.101562 4.109375 18.492188 4.71875 17.738281 4.71875 C 16.980469 4.71875 16.371094 4.109375 16.371094 3.355469 C 16.371094 2.597656 16.980469 1.992188 17.738281 1.992188 Z M 17.738281 1.992188 "/>
</g>
</defs>
<g id="surface1">
<use xlink:href="#surface5" mask="url(#mask0)"/>
<use xlink:href="#surface8" mask="url(#mask1)"/>
<path style=" stroke:none;fill-rule:nonzero;fill:rgb(40.000001%,73.333335%,41.568628%);fill-opacity:1;" d="M 4.320312 14.269531 C 3.816406 14.269531 3.410156 14.675781 3.410156 15.179688 L 3.410156 16.773438 L 1.820312 16.773438 C 1.316406 16.773438 0.910156 17.175781 0.910156 17.679688 C 0.910156 18.183594 1.316406 18.589844 1.820312 18.589844 L 3.410156 18.589844 L 3.410156 20.183594 C 3.410156 20.6875 3.816406 21.09375 4.320312 21.09375 C 4.824219 21.09375 5.230469 20.6875 5.230469 20.183594 L 5.230469 18.589844 L 6.820312 18.589844 C 7.324219 18.589844 7.730469 18.183594 7.730469 17.679688 C 7.730469 17.175781 7.324219 16.773438 6.820312 16.773438 L 5.230469 16.773438 L 5.230469 15.179688 C 5.230469 14.675781 4.824219 14.269531 4.320312 14.269531 Z M 4.320312 14.269531 "/>
<path style=" stroke:none;fill-rule:nonzero;fill:rgb(74.117649%,74.117649%,74.117649%);fill-opacity:1;" d="M 4.09375 6.992188 L 5.457031 6.992188 C 5.707031 6.992188 5.914062 7.199219 5.914062 7.449219 L 5.914062 8.8125 C 5.914062 9.0625 5.707031 9.269531 5.457031 9.269531 L 4.09375 9.269531 C 3.84375 9.269531 3.636719 9.0625 3.636719 8.8125 L 3.636719 7.449219 C 3.636719 7.199219 3.84375 6.992188 4.09375 6.992188 Z M 4.09375 6.992188 "/>
<path style=" stroke:none;fill-rule:nonzero;fill:rgb(74.117649%,74.117649%,74.117649%);fill-opacity:1;" d="M 8.1875 6.992188 L 9.550781 6.992188 C 9.800781 6.992188 10.003906 7.199219 10.003906 7.449219 L 10.003906 8.8125 C 10.003906 9.0625 9.800781 9.269531 9.550781 9.269531 L 8.1875 9.269531 C 7.933594 9.269531 7.730469 9.0625 7.730469 8.8125 L 7.730469 7.449219 C 7.730469 7.199219 7.933594 6.992188 8.1875 6.992188 Z M 8.1875 6.992188 "/>
<path style=" stroke:none;fill-rule:nonzero;fill:rgb(74.117649%,74.117649%,74.117649%);fill-opacity:1;" d="M 12.28125 6.992188 L 13.644531 6.992188 C 13.894531 6.992188 14.097656 7.199219 14.097656 7.449219 L 14.097656 8.8125 C 14.097656 9.0625 13.894531 9.269531 13.644531 9.269531 L 12.28125 9.269531 C 12.027344 9.269531 11.824219 9.0625 11.824219 8.8125 L 11.824219 7.449219 C 11.824219 7.199219 12.027344 6.992188 12.28125 6.992188 Z M 12.28125 6.992188 "/>
<path style=" stroke:none;fill-rule:nonzero;fill:rgb(74.117649%,74.117649%,74.117649%);fill-opacity:1;" d="M 16.371094 6.992188 L 17.738281 6.992188 C 17.988281 6.992188 18.191406 7.199219 18.191406 7.449219 L 18.191406 8.8125 C 18.191406 9.0625 17.988281 9.269531 17.738281 9.269531 L 16.371094 9.269531 C 16.121094 9.269531 15.917969 9.0625 15.917969 8.8125 L 15.917969 7.449219 C 15.917969 7.199219 16.121094 6.992188 16.371094 6.992188 Z M 16.371094 6.992188 "/>
<path style=" stroke:none;fill-rule:nonzero;fill:rgb(93.725491%,32.549021%,31.37255%);fill-opacity:1;" d="M 4.09375 11.085938 L 5.457031 11.085938 C 5.707031 11.085938 5.914062 11.289062 5.914062 11.542969 L 5.914062 12.90625 C 5.914062 13.15625 5.707031 13.359375 5.457031 13.359375 L 4.09375 13.359375 C 3.84375 13.359375 3.636719 13.15625 3.636719 12.90625 L 3.636719 11.542969 C 3.636719 11.289062 3.84375 11.085938 4.09375 11.085938 Z M 4.09375 11.085938 "/>
<path style=" stroke:none;fill-rule:nonzero;fill:rgb(93.725491%,32.549021%,31.37255%);fill-opacity:1;" d="M 8.1875 11.085938 L 9.550781 11.085938 C 9.800781 11.085938 10.003906 11.289062 10.003906 11.542969 L 10.003906 12.90625 C 10.003906 13.15625 9.800781 13.359375 9.550781 13.359375 L 8.1875 13.359375 C 7.933594 13.359375 7.730469 13.15625 7.730469 12.90625 L 7.730469 11.542969 C 7.730469 11.289062 7.933594 11.085938 8.1875 11.085938 Z M 8.1875 11.085938 "/>
<path style=" stroke:none;fill-rule:nonzero;fill:rgb(93.725491%,32.549021%,31.37255%);fill-opacity:1;" d="M 12.28125 11.085938 L 13.644531 11.085938 C 13.894531 11.085938 14.097656 11.289062 14.097656 11.542969 L 14.097656 12.90625 C 14.097656 13.15625 13.894531 13.359375 13.644531 13.359375 L 12.28125 13.359375 C 12.027344 13.359375 11.824219 13.15625 11.824219 12.90625 L 11.824219 11.542969 C 11.824219 11.289062 12.027344 11.085938 12.28125 11.085938 Z M 12.28125 11.085938 "/>
<path style=" stroke:none;fill-rule:nonzero;fill:rgb(93.725491%,32.549021%,31.37255%);fill-opacity:1;" d="M 16.371094 11.085938 L 17.738281 11.085938 C 17.988281 11.085938 18.191406 11.289062 18.191406 11.542969 L 18.191406 12.90625 C 18.191406 13.15625 17.988281 13.359375 17.738281 13.359375 L 16.371094 13.359375 C 16.121094 13.359375 15.917969 13.15625 15.917969 12.90625 L 15.917969 11.542969 C 15.917969 11.289062 16.121094 11.085938 16.371094 11.085938 Z M 16.371094 11.085938 "/>
<path style=" stroke:none;fill-rule:nonzero;fill:rgb(74.117649%,74.117649%,74.117649%);fill-opacity:1;" d="M 13.1875 14.269531 C 12.683594 14.269531 12.28125 14.675781 12.28125 15.179688 L 12.28125 20.183594 C 12.28125 20.6875 12.683594 21.09375 13.1875 21.09375 L 20.011719 21.09375 C 20.515625 21.09375 20.921875 20.6875 20.921875 20.183594 L 20.921875 15.179688 C 20.921875 14.675781 20.515625 14.269531 20.011719 14.269531 Z M 14.304688 14.953125 L 14.34375 14.953125 C 14.585938 14.953125 14.78125 15.15625 14.78125 15.40625 C 14.78125 15.660156 14.585938 15.863281 14.34375 15.863281 L 14.304688 15.863281 C 14.066406 15.863281 13.871094 15.660156 13.871094 15.40625 C 13.871094 15.15625 14.066406 14.953125 14.304688 14.953125 Z M 18.855469 14.953125 L 18.894531 14.953125 C 19.132812 14.953125 19.328125 15.15625 19.328125 15.40625 C 19.328125 15.660156 19.132812 15.863281 18.894531 15.863281 L 18.855469 15.863281 C 18.613281 15.863281 18.417969 15.660156 18.417969 15.40625 C 18.417969 15.15625 18.613281 14.953125 18.855469 14.953125 Z M 14.097656 16.542969 L 19.101562 16.542969 C 19.351562 16.542969 19.554688 16.746094 19.554688 17 L 19.554688 19.273438 C 19.554688 19.523438 19.351562 19.726562 19.101562 19.726562 L 14.097656 19.726562 C 13.847656 19.726562 13.644531 19.523438 13.644531 19.273438 L 13.644531 17 C 13.644531 16.746094 13.847656 16.542969 14.097656 16.542969 Z M 14.097656 16.542969 "/>
</g>
</svg>

<svg xmlns="http://www.w3.org/2000/svg" xmlns:xlink="http://www.w3.org/1999/xlink" width="22pt" height="22pt" viewBox="0 0 22 22"><defs><filter id="a" filterUnits="objectBoundingBox" x="0%" y="0%" width="100%" height="100%"><feColorMatrix in="SourceGraphic" values="0 0 0 0 1 0 0 0 0 1 0 0 0 0 1 0 0 0 1 0"/></filter><mask id="e"><path fill-opacity=".988" d="M0 0h22v22H0z" filter="url(#a)"/></mask><clipPath id="b"><path d="M0 0h22v22H0z"/></clipPath><g id="d" clip-path="url(#b)"><path d="M.91 5.629v7.73h1.363V5.63zm18.645 0v8.187h1.367V5.63zM8.188 19.727v1.367h3.636v-1.367zm0 0" fill="#bdbdbd"/></g><mask id="g"><path fill-opacity=".988" d="M0 0h22v22H0z" filter="url(#a)"/></mask><clipPath id="c"><path d="M0 0h22v22H0z"/></clipPath><g id="f" clip-path="url(#c)"><path d="M2.73 1.082c-1.007 0-1.82.813-1.82 1.82V5.63h20.012V2.902c0-1.007-.813-1.82-1.82-1.82zm1.364.91a1.36 1.36 0 0 1 1.363 1.363c0 .754-.61 1.364-1.363 1.364A1.36 1.36 0 0 1 2.73 3.355c0-.757.606-1.363 1.364-1.363zm13.644 0a1.36 1.36 0 0 1 1.364 1.363c0 .754-.61 1.364-1.364 1.364a1.363 1.363 0 1 1 0-2.727zm0 0" fill="#9ccc65"/></g></defs><use xlink:href="#d" mask="url(#e)"/><use xlink:href="#f" mask="url(#g)"/><path d="M4.32 14.27a.909.909 0 0 0-.91.91v1.593H1.82a.909.909 0 0 0 0 1.816h1.59v1.595c0 .503.406.91.91.91s.91-.407.91-.91V18.59h1.59a.909.909 0 1 0 0-1.817H5.23V15.18a.909.909 0 0 0-.91-.91zm0 0" fill="#66bb6a"/><path d="M4.094 6.992h1.363a.46.46 0 0 1 .457.457v1.364a.46.46 0 0 1-.457.457H4.094a.46.46 0 0 1-.457-.457V7.449a.46.46 0 0 1 .457-.457zm0 0M8.188 6.992H9.55c.25 0 .453.207.453.457v1.364c0 .25-.203.457-.453.457H8.187a.458.458 0 0 1-.457-.457V7.449c0-.25.204-.457.457-.457zm0 0M12.281 6.992h1.364c.25 0 .453.207.453.457v1.364c0 .25-.203.457-.453.457H12.28a.458.458 0 0 1-.457-.457V7.449c0-.25.203-.457.457-.457zm0 0M16.371 6.992h1.367c.25 0 .453.207.453.457v1.364c0 .25-.203.457-.453.457h-1.367a.457.457 0 0 1-.453-.457V7.449c0-.25.203-.457.453-.457zm0 0" fill="#bdbdbd"/><path d="M4.094 11.086h1.363c.25 0 .457.203.457.457v1.363c0 .25-.207.453-.457.453H4.094a.457.457 0 0 1-.457-.453v-1.363c0-.254.207-.457.457-.457zm0 0M8.188 11.086H9.55c.25 0 .453.203.453.457v1.363c0 .25-.203.453-.453.453H8.187a.454.454 0 0 1-.457-.453v-1.363c0-.254.204-.457.457-.457zm0 0M12.281 11.086h1.364c.25 0 .453.203.453.457v1.363c0 .25-.203.453-.453.453H12.28a.454.454 0 0 1-.457-.453v-1.363c0-.254.203-.457.457-.457zm0 0M16.371 11.086h1.367c.25 0 .453.203.453.457v1.363c0 .25-.203.453-.453.453h-1.367a.453.453 0 0 1-.453-.453v-1.363c0-.254.203-.457.453-.457zm0 0" fill="#ef5350"/><path d="M13.188 14.27a.905.905 0 0 0-.907.91v5.004c0 .503.403.91.906.91h6.825c.504 0 .91-.407.91-.91V15.18a.909.909 0 0 0-.91-.91zm1.117.683h.039c.242 0 .437.203.437.453a.446.446 0 0 1-.437.457h-.04a.446.446 0 0 1-.433-.457c0-.25.195-.453.434-.453zm4.55 0h.04c.238 0 .433.203.433.453a.446.446 0 0 1-.433.457h-.04a.446.446 0 0 1-.437-.457c0-.25.195-.453.437-.453zm-4.757 1.59h5.004c.25 0 .453.203.453.457v2.273c0 .25-.203.454-.453.454h-5.004a.453.453 0 0 1-.453-.454V17c0-.254.203-.457.453-.457zm0 0" fill="#bdbdbd"/></svg>
